icons/map-white.svg

<svg fill="none" height="18" viewBox="0 0 16 18" width="16" xmlns="http://www.w3.org/2000/svg"><path d="m8 9.11315c.55 0 1.02083-.17323 1.4125-.51968s.5875-.76293.5875-1.24943c0-.48651-.19583-.90299-.5875-1.24944s-.8625-.51968-1.4125-.51968-1.02083.17323-1.4125.51968-.5875.76293-.5875 1.24944c0 .4865.19583.90298.5875 1.24943s.8625.51968 1.4125.51968zm0 8.84555c-2.68333-2.0197-4.6875-3.8957-6.0125-5.628-1.325-1.7322-1.9875-3.33549-1.9875-4.80975 0-2.2114.804167-3.97314 2.4125-5.28523 1.60833-1.312095 3.47083-1.968142 5.5875-1.968142 2.1167 0 3.9792.656047 5.5875 1.968142 1.6083 1.31209 2.4125 3.07383 2.4125 5.28523 0 1.47426-.6625 3.07755-1.9875 4.80975-1.325 1.7323-3.3292 3.6083-6.0125 5.628z" fill="#fff"/></svg>

<svg width="16" height="18" viewBox="0 0 16 18" fill="none" xmlns="http://www.w3.org/2000/svg">
<path d="M8 9.11315C8.55 9.11315 9.02083 8.93992 9.4125 8.59347C9.80417 8.24702 10 7.83054 10 7.34404C10 6.85753 9.80417 6.44105 9.4125 6.0946C9.02083 5.74815 8.55 5.57492 8 5.57492C7.45 5.57492 6.97917 5.74815 6.5875 6.0946C6.19583 6.44105 6 6.85753 6 7.34404C6 7.83054 6.19583 8.24702 6.5875 8.59347C6.97917 8.93992 7.45 9.11315 8 9.11315ZM8 17.9587C5.31667 15.939 3.3125 14.063 1.9875 12.3307C0.6625 10.5985 0 8.99521 0 7.52095C0 5.30955 0.804167 3.54781 2.4125 2.23572C4.02083 0.923625 5.88333 0.267578 8 0.267578C10.1167 0.267578 11.9792 0.923625 13.5875 2.23572C15.1958 3.54781 16 5.30955 16 7.52095C16 8.99521 15.3375 10.5985 14.0125 12.3307C12.6875 14.063 10.6833 15.939 8 17.9587Z" fill="white"/>
</svg>
